_includes/icons/ios-swift.svg

<svg fill="#666" height="50" viewBox="0 0 50 50" width="50" xmlns="http://www.w3.org/2000/svg"><path d="m14.5 3c-6.339438 0-11.5 5.160562-11.5 11.5v21c0 6.339438 5.160562 11.5 11.5 11.5h21c6.339438 0 11.5-5.160562 11.5-11.5v-21c0-6.339438-5.160562-11.5-11.5-11.5zm0 2h21c5.258562 0 9.5 4.241438 9.5 9.5v21c0 5.258562-4.241438 9.5-9.5 9.5h-21c-5.258562 0-9.5-4.241438-9.5-9.5v-21c0-5.258562 4.241438-9.5 9.5-9.5zm13.503906 4a1.0001 1.0001 0 0 0 -.761718 1.652344s3.668631 4.338214 3.755859 9.863281c.01677 1.04412-.349009 2.428872-.679688 3.730469-1.859032-1.337872-10.079228-7.294028-14.601562-11.94336a1.0001 1.0001 0 0 0 -1.537109 1.269532s1.631696 2.336971 3.55664 4.921875c.363382.487966.6552.743861 1.025391 1.232421-1.945636-1.374909-3.825418-2.646884-7.107422-5.482421a1.0001 1.0001 0 0 0 -1.445313 1.367187s2.550661 3.304025 5.714844 6.970703c2.755292 3.192852 5.799759 6.376881 8.373047 8.279297-.906034.519761-2.318988 1.136123-4.796875 1.136719-2.784151.000928-6.547782-.894516-10.9453125-3.830078a1.0001 1.0001 0 0 0 -1.4433594 1.291015s5.5068249 10.539969 18.0136719 10.541016c2.857837 0 4.904884-.770505 6.470703-1.496094s2.621478-1.310547 3.603516-1.310547c2.089451 0 3.552734 2.3125 3.552734 2.3125a1.0001 1.0001 0 0 0 1.791016-.130859c.971597-2.408263.182955-4.864955-.740235-6.650391-.752147-1.454643-1.376939-2.109805-1.683593-2.464843.304876-.653894.880014-2.053458.880859-4.384766.001069-4.293246-1.872607-10.791758-10.431641-16.6972656a1.0001 1.0001 0 0 0 -.564453-.1777344zm3.597656 5.373047c4.355467 4.376938 5.399172 8.553824 5.398438 11.501953-.000913 2.518848-.867188 4.001953-.867188 4.001953a1.0001 1.0001 0 0 0 .13086 1.173828s.973158 1.068686 1.761719 2.59375c.479622.927583.745418 1.967138.824218 3.007813-.880466-.749991-2.074492-1.458985-3.65039-1.458985-1.683963 0-2.982382.818183-4.445313 1.496094-1.46293.677911-3.119743 1.310547-5.628906 1.310547-6.66473-.000558-10.856904-3.15085-13.380859-5.837891 2.924586 1.289725 5.570253 1.836666 7.755859 1.835938 4.477333-.0011 7.148438-2.236328 7.148438-2.236328a1.0001 1.0001 0 0 0 -.140626-1.623047c-2.038192-1.200223-5.67503-4.983993-8.736328-8.501953.858071.614029 1.815509 1.322296 2.462891 1.740234 2.127462 1.373451 3.216797 1.808594 3.216797 1.808594a1.0001 1.0001 0 0 0 1.005859-1.697266c-.476519-.400013-1.697386-2.033966-2.68164-3.242187 4.441835 3.550804 8.646484 6.570312 8.646484 6.570312a1.0001 1.0001 0 0 0 1.519531-.482422c.666947-1.876385 1.08549-4.053203 1.056641-5.849609-.03718-2.354762-.670776-4.357071-1.396485-6.111328z"/></svg>

<svg xmlns="http://www.w3.org/2000/svg" viewBox="0 0 50 50" width="50" height="50" fill="#666"><path style="line-height:normal;text-indent:0;text-align:start;text-decoration-line:none;text-decoration-style:solid;text-decoration-color:#000;text-transform:none;block-progression:tb;isolation:auto;mix-blend-mode:normal" d="M 14.5 3 C 8.160562 3 3 8.160562 3 14.5 L 3 35.5 C 3 41.839438 8.160562 47 14.5 47 L 35.5 47 C 41.839438 47 47 41.839438 47 35.5 L 47 14.5 C 47 8.160562 41.839438 3 35.5 3 L 14.5 3 z M 14.5 5 L 35.5 5 C 40.758562 5 45 9.241438 45 14.5 L 45 35.5 C 45 40.758562 40.758562 45 35.5 45 L 14.5 45 C 9.241438 45 5 40.758562 5 35.5 L 5 14.5 C 5 9.241438 9.241438 5 14.5 5 z M 28.003906 9 A 1.0001 1.0001 0 0 0 27.242188 10.652344 C 27.242188 10.652344 30.910819 14.990558 30.998047 20.515625 C 31.014817 21.559745 30.649038 22.944497 30.318359 24.246094 C 28.459327 22.908222 20.239131 16.952066 15.716797 12.302734 A 1.0001 1.0001 0 0 0 14.179688 13.572266 C 14.179688 13.572266 15.811384 15.909237 17.736328 18.494141 C 18.09971 18.982107 18.391528 19.238002 18.761719 19.726562 C 16.816083 18.351653 14.936301 17.079678 11.654297 14.244141 A 1.0001 1.0001 0 0 0 10.208984 15.611328 C 10.208984 15.611328 12.759645 18.915353 15.923828 22.582031 C 18.67912 25.774883 21.723587 28.958912 24.296875 30.861328 C 23.390841 31.381089 21.977887 31.997451 19.5 31.998047 C 16.715849 31.998975 12.952218 31.103531 8.5546875 28.167969 A 1.0001 1.0001 0 0 0 7.1113281 29.458984 C 7.1113281 29.458984 12.618153 39.998953 25.125 40 C 27.982837 40 30.029884 39.229495 31.595703 38.503906 C 33.161522 37.778317 34.217181 37.193359 35.199219 37.193359 C 37.28867 37.193359 38.751953 39.505859 38.751953 39.505859 A 1.0001 1.0001 0 0 0 40.542969 39.375 C 41.514566 36.966737 40.725924 34.510045 39.802734 32.724609 C 39.050587 31.269966 38.425795 30.614804 38.119141 30.259766 C 38.424017 29.605872 38.999155 28.206308 39 25.875 C 39.001069 21.581754 37.127393 15.083242 28.568359 9.1777344 A 1.0001 1.0001 0 0 0 28.003906 9 z M 31.601562 14.373047 C 35.957029 18.749985 37.000734 22.926871 37 25.875 C 36.999087 28.393848 36.132812 29.876953 36.132812 29.876953 A 1.0001 1.0001 0 0 0 36.263672 31.050781 C 36.263672 31.050781 37.23683 32.119467 38.025391 33.644531 C 38.505013 34.572114 38.770809 35.611669 38.849609 36.652344 C 37.969143 35.902353 36.775117 35.193359 35.199219 35.193359 C 33.515256 35.193359 32.216837 36.011542 30.753906 36.689453 C 29.290976 37.367364 27.634163 38 25.125 38 C 18.46027 37.999442 14.268096 34.84915 11.744141 32.162109 C 14.668727 33.451834 17.314394 33.998775 19.5 33.998047 C 23.977333 33.996947 26.648438 31.761719 26.648438 31.761719 A 1.0001 1.0001 0 0 0 26.507812 30.138672 C 24.46962 28.938449 20.832782 25.154679 17.771484 21.636719 C 18.629555 22.250748 19.586993 22.959015 20.234375 23.376953 C 22.361837 24.750404 23.451172 25.185547 23.451172 25.185547 A 1.0001 1.0001 0 0 0 24.457031 23.488281 C 23.980512 23.088268 22.759645 21.454315 21.775391 20.246094 C 26.217226 23.796898 30.421875 26.816406 30.421875 26.816406 A 1.0001 1.0001 0 0 0 31.941406 26.333984 C 32.608353 24.457599 33.026896 22.280781 32.998047 20.484375 C 32.960867 18.129613 32.327271 16.127304 31.601562 14.373047 z"/></svg>
